packages/core/src/svgs/networks/mono/hedera-hashgraph.svg

<svg width="24" height="24" viewBox="0 0 24 24" fill="none" xmlns="http://www.w3.org/2000/svg">
<path d="M14.8546 12.6147H9.26465V11.2197H14.8546V12.6147Z" fill="white"/>
<path fill-rule="evenodd" clip-rule="evenodd" d="M6.44429 3.6853C8.08878 2.58649 10.0222 2 12 2C14.6521 2 17.1957 3.05356 19.0711 4.92893C20.9464 6.8043 22 9.34783 22 12C22 13.9777 21.4135 15.9112 20.3147 17.5557C19.2159 19.2002 17.6541 20.4819 15.8269 21.2387C13.9996 21.9956 11.9889 22.1937 10.0491 21.8079C8.10928 21.422 6.32746 20.4696 4.92893 19.0711C3.53041 17.6725 2.578 15.8907 2.19215 13.9509C1.8063 12.0111 2.00434 10.0004 2.76121 8.17316C3.51809 6.3459 4.79981 4.78411 6.44429 3.6853ZM14.795 16.325H16.065V7.57H14.795V10.205H9.20499V7.57H7.93499V16.325H9.20499V13.625H14.795V16.325Z" fill="white"/>
</svg>

<svg xmlns="http://www.w3.org/2000/svg" width="24" height="24" fill="none" viewBox="0 0 24 24">
    <path fill="#fff" d="M14.855 12.615h-5.59V11.22h5.59z"/>
    <path fill="#fff" fill-rule="evenodd" d="M6.444 3.685a10 10 0 1 1 11.112 16.63A10 10 0 0 1 6.444 3.685m8.351 12.64h1.27V7.57h-1.27v2.635h-5.59V7.57h-1.27v8.755h1.27v-2.7h5.59z" clip-rule="evenodd"/>
</svg>
